public/images/icons/espace-formation/icn_journey_02.svg

<svg xmlns="http://www.w3.org/2000/svg" width="50" height="50" viewBox="0 0 50 50"><g fill="none" fill-rule="evenodd"><path fill="#F8F2FF" d="M47.1428571,50 L2.85714286,50 C1.27928571,50 0,48.7207143 0,47.1428571 L0,2.85714286 C0,1.27928571 1.27928571,0 2.85714286,0 L47.1428571,0 C48.7207143,0 50,1.27928571 50,2.85714286 L50,47.1428571 C50,48.7207143 48.7207143,50 47.1428571,50"/><path stroke="#C292FF" stroke-linejoin="round" stroke-width="2" d="M14.5833333 12.5L14.5833333 38.3333333M25.4166667 12.5L25.4166667 38.3333333M35.4166667 12.5L35.4166667 38.3333333M10.8333333 17.9166667L18.3333333 17.9166667M21.6666667 27.9166667L29.1666667 27.9166667M31.6666667 21.25L39.1666667 21.25"/></g></svg>

<svg viewBox="0 0 50 50"><g fill="none" fill-rule="evenodd"><path fill="#F8F2FF" d="M47.143 50H2.857A2.857 2.857 0 010 47.143V2.857A2.857 2.857 0 012.857 0h44.286A2.857 2.857 0 0150 2.857v44.286A2.857 2.857 0 0147.143 50"/><path stroke="#C292FF" stroke-linejoin="round" stroke-width="2" d="M14.583 12.5v25.833M25.417 12.5v25.833m10-25.833v25.833M10.833 17.917h7.5m3.334 10h7.5m2.5-6.667h7.5"/></g></svg>
